!!!COM: Bach, Johann Sebastian
!!!CDT: 1685/3//-1750/7/28/
!!!OTL@@DE: Herr Gott, dich loben alle wir
!!!AGN: 4-Part Chorale
!!!SCT: Erk 164
!!!SCT: BWV 326
!!!YEC: Copyright 2003 by Craig Stuart Sapp
!!!license: GNU General Public License (http://www.gnu.org/copyleft/gpl.html)
!!!SMA: 371 Bach Chorales, edited by Ludwig Erk, C.F. Peters
!!!PDT: 1850, 1865
**kern	**kern	**kern	**kern	**root	**harm	**kern
!bass	!tenor	!alto	!soprno	!	!	!
*Iorgan	*Iorgan	*Iorgan	*Iorgan	*Iorgan	*	*Iorgan
*clefF4	*clefF4	*clefG2	*clefG2	*	*	*
*k[b-e-]	*k[b-e-]	*k[b-e-]	*k[b-e-]	*k[b-e-]	*k[b-e-]	*k[b-e-]
*B-:	*B-:	*B-:	*B-:	*B-:	*B-:	*B-:
*M3/4	*M3/4	*M3/4	*M3/4	*M3/4	*M3/4	*M3/4
*MM60	*MM60	*MM60	*MM60	*MM60	*MM60	*MM60
8BB-	4d	4f	4b-	4BB-	I	4B- 4dd 4ff
8AA	.	.	.	.	.	.
=1	=1	=1	=1	=1	=1	=1
8GG	2d	2g	2b-	2GG	vi	2G 2b- 2dd
8AA	.	.	.	.	.	.
8BB-	.	.	.	.	.	.
8C	.	.	.	.	.	.
8D	4d	4f	4a	4BB-	I7	4B- 4dd 4ff 4aa
8BB-	.	.	.	.	.	.
=2	=2	=2	=2	=2	=2	=2
8E-	2B-	2e-	2g	2EE-	IV	2E- 2g 2b-
8F	.	.	.	.	.	.
8G	.	.	.	.	.	.
8A	.	.	.	.	.	.
8B-	4B-	4d	4f	4BB-	I	4B- 4dd 4ff
8A	.	.	.	.	.	.
=3	=3	=3	=3	=3	=3	=3
8G	2B-	4d	4b-	4GG	vi	4G 4b- 4dd
8F	.	.	.	.	.	.
8E-	.	4g	2cc	4CC	V7b/V	4c 4E 4g 4b-
8D	.	.	.	.	.	.
8E-	4A	4f	.	4FF	V7d	4f 4a 4cc 4E-
8F	.	.	.	.	.	.
=4	=4	=4	=4	=4	=4	=4
2BB-;	2B-;	2f;	2dd;	2BB-;	I;	2B-; 2dd; 2ff;
4FF#	4A	4a	4dd	4DD	V/VI	4D 4f# 4a
=5	=5	=5	=5	=5	=5	=5
8GG	2B-	2g	2dd	2.GG	vi	2.G 2.b- 2.dd
8D	.	.	.	.	.	.
8G	.	.	.	.	.	.
8F	.	.	.	.	.	.
8E-	4B-	4g	4dd	.	.	.
8D	.	.	.	.	.	.
=6	=6	=6	=6	=6	=6	=6
8E-	4B-	4g	2cc	4EE-	IV7	4E- 4g 4b- 4dd
8C	.	.	.	.	.	.
8F	4A	4f	.	4FF	V	4F 4a 4cc
8E-	.	.	.	.	.	.
8D	4B-	4f	4dd	4BB-	Ib	4b- 4D 4ff
8C	.	.	.	.	.	.
=7	=7	=7	=7	=7	=7	=7
8BB-	4c	4f	4ee-	4FF	V7b	4f 4A 4cc 4ee-
8AA	.	.	.	.	.	.
8BB-	2B-	2f	2dd	2BB-	I	2B- 2dd 2ff
8C	.	.	.	.	.	.
8D	.	.	.	.	.	.
8E-	.	.	.	.	.	.
=8	=8	=8	=8	=8	=8	=8
2F;	2A;	2f;	2cc;	2FF;	V;	2F; 2a; 2cc;
4G	4d	4g	4b-	4GG	vi	4G 4b- 4dd
=9	=9	=9	=9	=9	=9	=9
8A	2c	2f	2cc	2FF	V	2F 2a 2cc
8F	.	.	.	.	.	.
8G	.	.	.	.	.	.
8A	.	.	.	.	.	.
8B-	4B-	8f	4dd	4GG	vi7	4G 4b- 4dd 4ff
8G	.	8b-	.	.	.	.
=10	=10	=10	=10	=10	=10	=10
8E-	4B-	4g	2cc	4CC	ii7	4C 4e- 4g 4b-
8D	.	.	.	.	.	.
8E-	4A	8f	.	4FF	V7d	4f 4a 4cc 4E-
8F	.	8e-	.	.	.	.
8G	4B-	4d	4b-	4GG	vi	4G 4b- 4dd
8D	.	.	.	.	.	.
=11	=11	=11	=11	=11	=11	=11
8E-	8B-	4g	4g	4EE-	IV	4E- 4g 4b-
8BB-	8d	.	.	.	.	.
8C	4e-	4g	2a	4AA	vii7D	4A 4cc 4ee 4gg
8AA	.	.	.	.	.	.
8D	4d	4f#	.	4DD	V/VI	4D 4f# 4a
8DD	.	.	.	.	.	.
=12	=12	=12	=12	=12	=12	=12
2GG;	2d;	2g;	2b-;	2GG;	vi;	2G; 2b-; 2dd;
4A	4c	4f	4ff	4FF	Vb	4f 4A 4cc
=13	=13	=13	=13	=13	=13	=13
8B-	2d	2f	2dd	2BB-	I	2B- 2dd 2ff
8c	.	.	.	.	.	.
8B-	.	.	.	.	.	.
8A	.	.	.	.	.	.
8G	4d	4g	4b-	4GG	vi	4G 4b- 4dd
8F	.	.	.	.	.	.
=14	=14	=14	=14	=14	=14	=14
8E-	2A	2f	2cc	2FF	V7d	2f 2a 2cc 2E-
8G	.	.	.	.	.	.
8F	.	.	.	.	.	.
8E-	.	.	.	.	.	.
8D	4A	4f	4ee-	4DD	iii7	4D 4f 4a 4cc
8C	.	.	.	.	.	.
=15	=15	=15	=15	=15	=15	=15
8BB-	2B-	4f	4dd	4BB-	I	4B- 4dd 4ff
8D	.	.	.	.	.	.
8E-	.	4g	2cc	4CC	ii7b	4c 4E- 4g 4b-
8C	.	.	.	.	.	.
8F	4A	8f	.	4FF	V7	4F 4a 4cc 4ee-
8FF	.	8e-	.	.	.	.
=16	=16	=16	=16	=16	=16	=16
2BB-;	2F;	2d;	2b-;	2BB-;	I;	2B-; 2dd; 2ff;
==	==	==	==	==	==	==
*-	*-	*-	*-	*-	*-	*-
